assets/icons/judge.svg

<svg width="24" height="25" viewBox="0 0 24 25" fill="none" xmlns="http://www.w3.org/2000/svg">
<path d="M14.561 13.6986C14.8194 13.4401 15.2281 13.4242 15.5054 13.6503L15.5592 13.6986L20.5093 18.6487L20.5576 18.7018C20.7839 18.9791 20.7678 19.3884 20.5093 19.6469C20.2508 19.9054 19.8415 19.9215 19.5642 19.6951L19.5111 19.6469L14.561 14.6967L14.5128 14.643C14.2866 14.3657 14.3026 13.957 14.561 13.6986Z" fill="#111111"/>
<path d="M11.1211 3.00228C12.1826 2.04363 13.8257 2.07615 14.8484 3.09878L19.0885 7.33821L19.1843 7.43955C20.1122 8.46684 20.1123 10.039 19.1843 11.0662L19.0885 11.1668L12.0186 18.2367C10.996 19.2593 9.35285 19.2912 8.29139 18.3325L8.19005 18.2367L3.95062 13.9965C2.89496 12.9409 2.89496 11.2243 3.95062 10.1686L11.0205 3.09878L11.1211 3.00228ZM13.8502 4.09695C13.3774 3.6241 12.6244 3.59423 12.1165 4.00802L12.0186 4.09695L4.94878 11.1668C4.44445 11.6711 4.44445 12.494 4.94878 12.9984L9.1889 17.2385L9.28679 17.3274C9.79462 17.741 10.5477 17.7113 11.0205 17.2385L18.0903 10.1686L18.1793 10.0701C18.5651 9.59616 18.5652 8.90882 18.1793 8.43495L18.0903 8.33707L13.8502 4.09695Z" fill="#111111"/>
<path d="M7.99971 20.9317L8.07209 20.9351C8.42794 20.9714 8.70559 21.2722 8.70559 21.6376C8.70559 22.003 8.42794 22.3038 8.07209 22.34L7.99971 22.3435H1.99971C1.60986 22.3435 1.29382 22.0274 1.29382 21.6376C1.29382 21.2477 1.60986 20.9317 1.99971 20.9317H7.99971Z" fill="#111111"/>
<path d="M6.06064 8.05856C6.31907 7.80013 6.72778 7.78418 7.00503 8.01031L7.0588 8.05856L14.1287 15.1284L14.1776 15.1822C14.4036 15.4594 14.387 15.8682 14.1287 16.1266C13.8703 16.3849 13.4615 16.4015 13.1843 16.1755L13.1305 16.1266L6.06064 9.05673L6.01238 9.00296C5.78626 8.72571 5.80221 8.317 6.06064 8.05856Z" fill="#111111"/>
</svg>

<svg xmlns="http://www.w3.org/2000/svg" width="24" height="25" fill="none" viewBox="0 0 24 25"><path fill="#111" d="M14.561 13.699a.706.706 0 0 1 .944-.049l.054.049 4.95 4.95.049.053a.706.706 0 0 1-.994.993l-.053-.048-4.95-4.95-.048-.054a.706.706 0 0 1 .048-.944"/><path fill="#111" d="M11.121 3.002a2.71 2.71 0 0 1 3.727.097l4.24 4.24.096.1a2.71 2.71 0 0 1 0 3.627l-.096.1-7.07 7.07a2.71 2.71 0 0 1-3.727.096l-.101-.095-4.24-4.24a2.71 2.71 0 0 1 0-3.828l7.07-7.07zm2.73 1.095a1.3 1.3 0 0 0-1.735-.089l-.097.089-7.07 7.07a1.3 1.3 0 0 0 0 1.831l4.24 4.24.098.09c.508.413 1.26.383 1.733-.09l7.07-7.07.09-.098a1.3 1.3 0 0 0 0-1.635l-.09-.098zM8 20.932l.072.003a.706.706 0 0 1 0 1.405L8 22.343H2a.706.706 0 0 1 0-1.411z"/><path fill="#111" d="M6.06 8.059a.706.706 0 0 1 .945-.049l.054.049 7.07 7.07.049.053a.706.706 0 0 1-.994.993l-.053-.048-7.07-7.07-.049-.054a.706.706 0 0 1 .049-.944"/></svg>
